app/assets/images/heroicons/micro/paper-clip.svg

<svg width="16" height="16" viewBox="0 0 16 16" fill="none" xmlns="http://www.w3.org/2000/svg">
<path fill-rule="evenodd" clip-rule="evenodd" d="M11.9142 4.08579C11.1332 3.30474 9.86684 3.30474 9.08579 4.08579L4.08579 9.08579C3.30474 9.86683 3.30474 11.1332 4.08579 11.9142C4.86684 12.6953 6.13316 12.6953 6.91421 11.9142L7.46967 11.3588C7.76256 11.0659 8.23744 11.0659 8.53033 11.3588C8.82322 11.6517 8.82322 12.1265 8.53033 12.4194L7.97487 12.9749C6.60804 14.3417 4.39196 14.3417 3.02513 12.9749C1.65829 11.608 1.65829 9.39196 3.02513 8.02513L8.02513 3.02513C9.39196 1.65829 11.608 1.65829 12.9749 3.02513C14.3417 4.39196 14.3417 6.60804 12.9749 7.97487L11.0026 9.94715C10.1727 10.777 8.82726 10.777 7.9974 9.94715C7.16753 9.11728 7.16753 7.77181 7.9974 6.94194L9.96967 4.96967C10.2626 4.67678 10.7374 4.67678 11.0303 4.96967C11.3232 5.26256 11.3232 5.73744 11.0303 6.03033L9.05806 8.0026C8.81398 8.24668 8.81398 8.64241 9.05806 8.88649C9.30214 9.13056 9.69786 9.13056 9.94194 8.88649L11.9142 6.91421C12.6953 6.13316 12.6953 4.86684 11.9142 4.08579Z" fill="#0F172A"/>
</svg>

<svg xmlns="http://www.w3.org/2000/svg" viewBox="0 0 16 16" fill="currentColor" aria-hidden="true" data-slot="icon">
  <path fill-rule="evenodd" d="M11.914 4.086a2 2 0 0 0-2.828 0l-5 5a2 2 0 1 0 2.828 2.828l.556-.555a.75.75 0 0 1 1.06 1.06l-.555.556a3.5 3.5 0 0 1-4.95-4.95l5-5a3.5 3.5 0 0 1 4.95 4.95l-1.972 1.972a2.125 2.125 0 0 1-3.006-3.005L9.97 4.97a.75.75 0 1 1 1.06 1.06L9.058 8.003a.625.625 0 0 0 .884.883l1.972-1.972a2 2 0 0 0 0-2.828Z" clip-rule="evenodd"/>
</svg>
